!!!OTL: 571b. Herzeleid.
!!!ARE: Europa, Mitteleuropa, Deutschland, Schwalbach
!!!SCT: E0571A
!!!TXL: @@DE
!!!YEM: Copyright 1995, estate of Helmut Schaffrath.
**kern	**text
*ICvox	*
*M3/4	*
*k[f#c#]	*
*D:	*
!LO:TX:a:t=Mäßig bewegt.	!
!LO:TX:a:t=Variante in Schwalbach.	!
{4f#	Hier
=1	=1
4e	ſieh
4a	ich
8bL	am
8ddJ	.
=2	=2
4dd	Ber-
4cc#}	-ge
{4a	und's
=3	=3
4e	Herʒ
4a	wird
8bL	mir
8ddJ	.
=4	=4
(4dd	bang,
4cc#)}	.
{4f#	Wie
=5	=5
4e	wird
4a	mir
8bL	nach'm
8ddJ	.
=6	=6
4dd	Lieb-
4cc#}	-chen
{4a	die
=7	=7
4e	Ʒeit
4a	ja
8bL	ſo
8ddJ	.
=8	=8
(4dd	lang.
4cc#)}	.
{4f#	Die
=9	=9
8eL	Vög-
8g#J	.
8bL	-lein
8ddJ	.
4dd	ſie
=10	=10
8cc#L	ſin-
8bJ	.
4a}	-gen,
{4e	der
=11	=11
8eL	Kuk-
8g#J	.
8bL	-kuk
8ddJ	.
4dd	der
=12	=12
(4.cc#;	ſchreit,
8b)}	.
{8aL	Hier
8ddJ	.
=13	=13
4dd	ſteh
4cc#	ich
8.b	ſo
16b	ver-
=14	=14
4b	-laſ-
4a}	-ſen,
{8f#L	hab
8aJ	.
=15	=15
4a	nir-
4g	-gends
(8eL	kein
8gJ)	.
=16	=16
(<8f#L	Freud,
8aJ	.
4dd)}	.
{8aL	Hier
8ddJ	.
=17	=17
4dd	ſteh
4cc#	ich
8.b	ſo
16b	ver-
=18	=18
4b	-laſ-
4a}	-ſen,
{8f#L	hab
8aJ	.
=19	=19
4a	nir-
4g	-gends
(8eL	kein
8gJ)	.
=20	=20
2f#}	Freud.
==	==
!!!AGN: Liebes - Lied
!!!ONB: ESAC (Essen Associative Code) Database: ERK1
!!!AMT: simple triple
!!!AIN: vox
!!!EED: Helmut Schaffrath
!!!EEV: 1.0
!!!RDF**kern: < = below
!!!GTL: Liebeslieder [Neuere (aus dem 18. bis 19. Jahrh.) - Liebeslust]
!!!URL-scan: https://rosdok.uni-rostock.de/mcrviewer/recordIdentifier/rosdok_ppn745177662/iview2/phys_0402.iview2?x=-128.77276441889308&y=294.0262268697843&scale=0.5870222003877485&rotation=0&layout=singlePageLayout
!!!ENC: Anna Maria Matuszewska
!!!EEV: 2024/11/12
*-	*-
